X:165
T:B165-  Gray's Inn Masque, or Mad Tom (incomplete)
Q:1/4=120
L:1/4
M:4/4
K:Fm
FF/2G/2AF|cCC2|CC/2=D/2=EC|CFF2|\
A,3/2A,/2B,3/2B,/2|C2/D/2E/2D/2 C3/2C/2|\
=D/2E/2F=E/2F/2G|F4:|\
F/2G/2A/2B/2c2|BAG2|F3/2F/2=E=D|[1 C4:| [2 C3C/2=D/2|]
=ECG2|AFc2|GAB3/2A/2|[1 A3C/2=D/2:|[2 A4|]\ 
A2GF|=E4|c2BA|G4:|]\ 
K:F 
L:1/4
AAAF| ABcc|d3/2d/2c3/2B/2|1 A4:|2 A3|]\
